X:1
T:CADDY IN A BUCKET
M:6/8
L:1/8
Q:80
C:Tark Hamilton
S:Jig
K:HP
|: {g}de{g}d{g}B2d | \
{g}dg{a}d{g}B2G | \
{g}ce{g}c{g}Bd{e}B |
{g}G3/2A/2A3 | \
{g}de{g}d{g}B2d | \
{g}f{a}g{ag}a{fg}f2{Gdc}d |
{g}d{ag}a{fg}f{g}fc{e}d | \
{gef}e3{gef}e3 :: \
{g}d{g}G{e}A{g}B2d |
{g}f{ag}a{fg}f{gdc}d2B | \
{g}cde{g}dc{g}B | \
{g}c{d}A{e}A{GAG}A3 |
{g}d{g}G{e}A{g}B2d | \
{a}gf{g}e{Gdc}d2g | \
{ag}ag{a}f{g}e{g}ce |
{fg}fgfg3/2f/2 :|
